enterprise/web.monitor/src/org/netbeans/modules/web/monitor/client/icons/delete.svg

<?xml version="1.0" encoding="UTF-8"?>
<!--

    Licensed to the Apache Software Foundation (ASF) under one
    or more contributor license agreements.  See the NOTICE file
    distributed with this work for additional information
    regarding copyright ownership.  The ASF licenses this file
    to you under the Apache License, Version 2.0 (the
    "License"); you may not use this file except in compliance
    with the License.  You may obtain a copy of the License at

      http://www.apache.org/licenses/LICENSE-2.0

    Unless required by applicable law or agreed to in writing,
    software distributed under the License is distributed on an
    "AS IS" BASIS, WITHOUT WARRANTIES OR CONDITIONS OF ANY
    KIND, either express or implied.  See the License for the
    specific language governing permissions and limitations
    under the License.

-->
<svg id="New_Vector" data-name="New Vector" xmlns="http://www.w3.org/2000/svg" width="16" height="16" version="1.1" viewBox="0 0 16 16">
  <defs>
    <style>
      .cls-1, .cls-2, .cls-3 {
        stroke-width: 0px;
      }

      .cls-1, .cls-3 {
        fill: #000;
      }

      .cls-4 {
        opacity: .15;
      }

      .cls-2 {
        fill: #e8e8e8;
      }

      .cls-3 {
        opacity: .4;
      }
    </style>
  </defs>
  <polygon class="cls-2" points="9 2 9 1 6 1 6 2 2 2 2 5 3 5 3 14 12 14 12 5 13 5 13 2 9 2"/>
  <path class="cls-3" d="M9,2v-1h-3v1H2v3h1v9h9V5h1v-3h-4ZM11,13h-7V5h7v8ZM12,4H3v-1h9v1Z"/>
  <g class="cls-4">
    <rect class="cls-1" x="5" y="6" width="1" height="6"/>
    <rect class="cls-1" x="7" y="6" width="1" height="6"/>
    <rect class="cls-1" x="9" y="6" width="1" height="6"/>
  </g>
</svg>

<?xml version="1.0" encoding="utf-8"?>
<!--

    Licensed to the Apache Software Foundation (ASF) under one
    or more contributor license agreements.  See the NOTICE file
    distributed with this work for additional information
    regarding copyright ownership.  The ASF licenses this file
    to you under the Apache License, Version 2.0 (the
    "License"); you may not use this file except in compliance
    with the License.  You may obtain a copy of the License at

      http://www.apache.org/licenses/LICENSE-2.0

    Unless required by applicable law or agreed to in writing,
    software distributed under the License is distributed on an
    "AS IS" BASIS, WITHOUT WARRANTIES OR CONDITIONS OF ANY
    KIND, either express or implied.  See the License for the
    specific language governing permissions and limitations
    under the License.

-->
<!-- Generator: Adobe Illustrator 25.2.1, SVG Export Plug-In . SVG Version: 6.00 Build 0)  -->
<svg version="1.1" id="Vector_Icons" xmlns="http://www.w3.org/2000/svg" xmlns:xlink="http://www.w3.org/1999/xlink" x="0px"
	 y="0px" width="16px" height="16px" viewBox="0 0 16 16" style="enable-background:new 0 0 16 16;" xml:space="preserve">
<style type="text/css">
	.st0{fill:#E9F7FF;}
	.st1{fill:#527C99;}
	.st2{fill:#FFC36D;}
	.st3{opacity:0.33;}
	.st4{fill:#E79B00;}
	.st5{fill:#CAE3FF;}
	.st6{fill:#3883CE;}
	.st7{fill:#FBDC7C;}
	.st8{fill:#FFDB43;}
	.st9{fill:none;stroke:#003399;stroke-width:1.375;stroke-miterlimit:10;}
	.st10{fill:#E8513D;}
	.st11{fill:#9FCBFF;}
	.st12{fill:#62707C;}
	.st13{fill:#7A8896;}
	.st14{fill:#57BFFF;}
	.st15{fill:#E69D35;}
	.st16{fill:#9CFF73;}
	.st17{fill:none;stroke:#000000;stroke-miterlimit:10;}
	.st18{fill:#EAEAEA;}
	.st19{fill:#E57067;}
	.st20{fill:#94E0EF;}
	.st21{fill:#4A4A4A;}
	.st22{fill:#727272;}
	.st23{fill:#EDEDED;}
	.st24{fill:#5B5B5B;}
	.st25{fill:#E9E9E9;}
	.st26{opacity:0.4;}
	.st27{opacity:0.15;}
	.st28{fill:#C3E3FF;}
	.st29{fill:#0084D3;}
	.st30{opacity:0.5;fill:#E9F7FF;}
	.st31{opacity:0.66;}
</style>
<polygon class="st25" points="9,2 9,1 6,1 6,2 2,2 2,5 3,5 3,14 12,14 12,5 13,5 13,2 "/>
<path class="st26" d="M9,2V1H6v1H2v3h1v9h9V5h1V2H9z M11,13H4V5h7V13z M12,4H3V3h9V4z"/>
<g class="st27">
	<rect x="5" y="6" width="1" height="6"/>
	<rect x="7" y="6" width="1" height="6"/>
	<rect x="9" y="6" width="1" height="6"/>
</g>
</svg>
